X:1
T:WEBER'S LAST WALTZ
L:1/8
M:3/4
I:linebreak $
K:A
V:1 treble 
V:1
 ea | (ag)(gf)(df) | feeEAc | cBcBcB | (Ac)(ce)(ea) | (ag)(gf)(df) | feeEAc | (cB)(cB)(cB) |$ A4 :: %9
 E^D | =DB=FBEB | DB=FBEB | aAcAcA | ^BABAac | DB=FBEB | DB=FBEB |$ EAEcEB | A4 ::[K:D] AG | %19
 TF3 F G2 | B2 A2 Af | (fe)(fe)(fe) | dfdfdf | F3 F G2 | B2 A2 Af |$ fefefe | d4 :| %27
